src/bright/hiso font bright_270F.svg

<svg xmlns="http://www.w3.org/2000/svg" width="126" height="126" viewBox="0 0 126 126"><path fill="#000101" d="M108 49.5h-54l-54 27v27l27 13.5 54-27 13.5-20.25 1.5-2.25 12-18zm-27 35.09v-21.59l14.65-7.32v6.935l-14.65 21.975zm-57.781-16.34l20.291 10.15-6.71 3.35-20.3-10.14 6.719-3.36zm66.081-15.75l3 1.5-14.65 7.33-17.65-8.83h29.3zm-62.3 61.15v-23.65l13.5-6.75v23.64l-13.5 6.76zm19.5-9.75v-23.65l31.5-15.756v23.656l-31.5 15.75z"/></svg>

<svg xmlns="http://www.w3.org/2000/svg" width="126" height="126"><path fill="#000101" d="M108 49.5H54l-54 27v27L27 117l54-27 13.5-20.25L96 67.5l12-18zM81 84.59V63l14.65-7.32v6.935L81 84.59zM23.219 68.25L43.51 78.4l-6.71 3.35-20.3-10.14 6.719-3.36zM89.3 52.5l3 1.5-14.65 7.33L60 52.5h29.3zM27 113.65V90l13.5-6.75v23.64L27 113.65zm19.5-9.75V80.25L78 64.494V88.15L46.5 103.9z"/></svg>
